icon-themes/sifr_svg/cmd/sc_symbolshapes.diamond-bevel.svg

<svg viewBox="0 0 16 16" xmlns="http://www.w3.org/2000/svg"><g fill="#555753"><path d="m8 0-8 8 8 8 8-8zm-1 3.4140625v2.5859375l-1 1h-2.5859375zm2 0 3.585938 3.5859375h-2.585938l-1-1zm-5.5859375 5.5859375h2.5859375l1 1v2.585938zm6.5859375 0h2.585938l-3.585938 3.585938v-2.585938z"/><path d="m8 2.414-5.586 5.586 5.586 5.586 5.586-5.586zm0 2.586 3 3-3 3-3-3z" opacity=".35"/></g></svg>

<svg xmlns="http://www.w3.org/2000/svg" viewBox="0 0 16 16">
  <path
     style="fill:#555753"
     d="M 8 0 L 0 8 L 8 16 L 16 8 L 8 0 z M 7 3.4140625 L 7 6 L 6 7 L 3.4140625 7 L 7 3.4140625 z M 9 3.4140625 L 12.585938 7 L 10 7 L 9 6 L 9 3.4140625 z M 3.4140625 9 L 6 9 L 7 10 L 7 12.585938 L 3.4140625 9 z M 10 9 L 12.585938 9 L 9 12.585938 L 9 10 L 10 9 z "
     />
  <path
     style="opacity:0.35;fill:#555753"
     d="M 8,2.414 2.414,8 8,13.586 13.586,8 Z M 8,5 11,8 8,11 5,8 Z"
     />
</svg>
